X: 43390
T: Wrong Foot Forward
R: slip jig
M: 9/8
K: Eminor
E3 G2B efg|d3 A3G FGA|G2E B2G EFG|F2D A2F DEF|
E3 G2B efg|d3 A3G FGA|G3 E2F GFD|1 D3 A2G FGA:|2 D3 A2G FED||
A3 c2e abg|c3 e2f gfd|E2F G2B efd|A3 d2e efa|
A3 c2e abg|c3 e2f gfd|E2F G2B efd|d3 BAG A2E:|

